X:1
T:Title
%%score { ( 1 3 ) | ( 2 4 ) }
L:1/8
M:6/8
K:Bb
V:1 treble nm="Grand Piano"
V:3 treble 
V:2 bass 
V:4 bass 
V:1
 z3 z2[Q:1/4=108] [GB] | [GB]3 [^FA]2 [Fc] | [GB]3 G2 E | D2 E F2 G | [F_A]3- [FA]2 [EA] | %5
 [D_A]3 [=EG]2 [GB] | [F_A]3 [DF]2 [Dc] | c2 B A2 B | G3- G2 G | [FG]3 [FA]2 [F=B] | %10
 [Ec]3 [EG]2 G | F2 F G2 [FA] | [FB]3 c3 | d3 [_Af]2 [Ge] | d3 F2 d | c6 |[M:9/16] [DB]4- [DB]/ | %17
[M:3/8] Bcd |[M:3/4] e2 d e2 c | _A3 B z2 | c3 G3 | [B,GB]6 | [D_AB]3 [DAB]3 | %23
 [D_AB]2 [AB] .[AB]3 | [EGB]3 [EGB]3 | [EGB]2 BB cd | e2 d e2 c | _A3 B z2 | c4 z2 | %29
 [EGB]4- [EGB]e | e4- ed | c2 z c de | g4- ge | B3 [Ge]3 | [_Af]6- | [Af]6 | [Ge]6- | %37
[M:5/8] [Ge]-[Ge]- [Ge]3 |] %38
V:2
 z3 z2 [E,B,] | [E,B,]3 [E,C]2 [E,A,] | [E,B,]3 [E,B,E]2 [G,B,] | %3
 [_A,B,]2 [G,B,] [F,B,D]2 [E,B,E] | [D,B,]3- [D,B,]2 [C,B,] | [B,,B,]3 [B,,B,]2 [B,,B,] | %6
 [B,,B,]3 [B,,B,]2 [B,,_A,] | [E,_A,E]2 [E,G,E] [E,^F,E]2 [E,G,E] | [E,B,E]3- [E,B,E]2 [E,B,E] | %9
 [D,=B,]3 [D,A,]2 [D,G,] | [C,G,]3 [C,C]2 [B,CE] | [A,CE]2 [G,CE] [F,CE]2 [E,C] | %12
 [D,B,]3[K:treble] [F,A,F]3 | [B,F]3[K:bass] [D,B,]2 [E,B,] | [F,B,F]3 [F,B,D]2 [F,B,F] | [F,E]6 | %16
[M:9/16] [B,,B,]4- [B,,B,]/ |[M:3/8][K:treble] [B,_A]-[B,CA][B,A] | %18
[M:3/4][K:bass] [E,B,]3 [B,,B,]3 | z2[K:treble] .c2 cd | z2 .B,2 z B, | E,2 B,, E,2 G, | %22
 B,2 _A,=E, G,F, | z2 D .D3 | B,2 G,E, G,E, | z2[K:treble] [EG][B,D_A] [B,CA][B,A] | %26
 [E,B,]3 [B,,B,]3 | z2[K:treble] .c2 cd | z2 .B,2 z E | E,2 G, B,2[K:treble] [B,_DG] | %30
 [A,^F]4- [A,F]-[A,DF] | [A,E^F]2 z2 z2 | [B,EG]6 | [G,E]3 [E,E]3 | [B,,B,]6- | [B,,B,]6 | %36
 [E,B,]6- |[M:5/8] [E,B,]-[E,B,]- [E,B,]3 |] %38
V:3
 x6 | x6 | x6 | x6 | x6 | x6 | x6 | x6 | x6 | x6 | x6 | x6 | x6 | x6 | x6 | z3 A,3 |[M:9/16] x9/2 | %17
[M:3/8] x3 |[M:3/4] G3 G3 | d2 z [B,_A]3 | [B,G]2 G [B,E]2 E | x6 | x6 | x6 | x6 | x6 | G3 G3 | %27
 d2 z [B,_A]3 | [B,G]2 G .[B,EG]3 | x6 | x6 | x6 | x6 | x6 | E6 | D6 | x6 |[M:5/8] x5 |] %38
V:4
 x6 | x6 | x6 | x6 | x6 | x6 | x6 | x6 | x6 | x6 | x6 | x6 | x3[K:treble] x3 | x3[K:bass] x3 | x6 | %15
 B,3 z3 |[M:9/16] x9/2 |[M:3/8][K:treble] D z z |[M:3/4][K:bass] x6 | [F,B,]3[K:treble] B,,3 | %20
 E,3 B,,3 | x6 | x6 | B,,6 | x6 | B,,4[K:treble] z2 | x6 | [F,B,]3[K:treble] B,,3 | E,3 B,,3 | %29
 x5[K:treble] x | C6 | x6 | x6 | x6 | x6 | x6 | x6 |[M:5/8] x5 |] %38

